X: 3113
T: BONNYBRIDGE
Q:"Strathspey."
R: Strathspey.
%R:strathspey
B: James Kerr "Merry Melodies" v.3 p.14 #113
Z: 2016 John Chambers <jc:trillian.mit.edu>
N: The 2nd strain has initial repeat but no final repeat; fixed.
M: C
L: 1/8
K: A
|:\
a<a e>d c<A A>c | d<d B>A G>E E>D |\
C>EA>G F<F d>B | (3GAB D>d c<A Ae :|
|:\
(3cde A>=G F<D D>c | (3def B>A G<E E>G |\
(3ABc (3Bcd (3cde (3def | e<a e>d c<A Ae :|

%%sep 1 1 500
%%sep 1 1 500

